X:1
T:The Wild Mustard River
M:3/4
L:1/4
K:F
 C| F3/2 G/2 F| E D C| B B z| z2 A/2B/2| c/2 c3/2 c| A C D| _E2 z|\
 z2 C| F3/2 G/2 F| E3/2 D/2 C| B B z| z2 A/2B/2| c A F| B G E| F2 z|\
 z2 c/2c/2| d c3/2 c/2| A G F| B B z| z2A/2-B/2| c c c| A C D| _E2 z|\
 z2 C| F G F| E D C| B B z| z2 A/2B/2| c A F| B/2 G3/2 E| F2 z| z2||\


